!!!COM: Scriabin, Alexander
!!!OTL@@FR: Poème ailé
!!!OTL@@EN:
!!!OPR@@FR: 4 Morceaux
!!!OPS: 51
!!!ONM: 3
!!!ODT: 1906
!!!AGN: Poem
**kern	**kern	**dynam
*staff2	*staff1	*staff1/2
*Ipiano	*Ipiano	*
*clefF4	*clefG2	*
*k[f#c#g#d#a#]	*k[f#c#g#d#a#]	*
*B:	*B:	*
*M2/4	*M2/4	*
*	*^	*
32r	32raa	32rc	.
16.E	32d#LLL	16.A#	.
.	32c#	.	.
.	32B#XJJJ	.	.
=1	=1	=1	=1
16FF#	[8g#L	8rc	.
16r	.	.	.
32r	32g#LL]	32rc	.
16.FF#	32f#	16.A#	.
.	32e	.	.
.	32d#JJJ	.	.
16FFF#	[8g#L	8rc	.
16r	.	.	.
32r	32g#LL]	32rc	.
16.E	32f#	16.Bn	.
.	32e	.	.
.	32d#JJJ	.	.
=2	=2	=2	=2
16FF#	[8bL	8rc	.
16r	.	.	.
32r	32bLL]	32rc	.
16.E 16.B	32a#	16.e	.
.	32g#	.	.
.	32f##XJJJ	.	.
16FF#X	[8dd#L	8rc	.
16r	.	.	.
32r	32dd#LL]	32rc	.
16.E 16.A#	32a#	16.e	.
.	32g#	.	.
.	32f##JJJ	.	.
=3	=3	=3	=3
16FF#	[8dd#L	8rc	.
16r	.	.	.
32r	32dd#LL]	32rc	.
16.E 16.B-X	32an	16.e	.
.	32gn	.	.
.	32f#JJJ	.	.
16CCn 16Cn	[8eeL	8rc	.
16r	.	.	.
32r	32eeLL]	32rc	.
16.E 16.A#X 16.e	32dd#	16.a#X	.
.	32cc#X	.	.
.	32b#XJJJ	.	.
=4	=4	=4	=4
8FFF# 8FF#	[8gg#XL	4rc	.
8r	32gg#LL]	.	.
.	32ff#	.	.
.	32ee	.	.
.	32dd#JJJ	.	.
8r	[8g#L	8rc	.
32r	32g#LL]	32rc	.
16.An	32g#	16.d#	.
.	32f#	.	.
.	32e#XJJJ	.	.
=5	=5	=5	=5
16BB	[8cc#L	8rc	.
16r	.	.	.
32r	32cc#LL]	32rc	.
16.BB	32b	16.d#	.
.	32an	.	.
.	32g#JJJ	.	.
16BBB	[8cc#L	8rc	.
16r	.	.	.
32r	32cc#LL]	32rc	.
16.BB 16.An	32b	16.c#	.
.	32a	.	.
.	32g#JJJ	.	.
=6	=6	=6	=6
16EE	[8eeL	8rc	.
16r	.	.	.
32r	32eeLL]	32rc	.
16.BB 16.An 16.e	32dd#	16.an	.
.	32cc#	.	.
.	32b#XJJJ	.	.
8r	[8gg#L	8rc	.
32r	32gg#LL]	32rc	.
16.dn	32cc#	16.g#	.
.	32bn	.	.
.	32a#XJJJ	.	.
=7	=7	=7	=7
16E	[8ff#L	8rc	.
16r	.	.	.
32r	32ff#LL]	32rc	.
16.A-X 16.dn	32ddn	16.a-X	.
.	32ccn	.	.
.	32bnJJJ	.	.
16BB-X	[8ggnL	8rc	.
16r	.	.	.
32r	32ggLL]	32rc	.
16.Gn 16.B-X	32ffn	16.gn 16.b-X	.
.	32ee-X	.	.
.	32ddJJJ	.	.
=8	=8	=8	=8
*^	*	*	*
4rc	8EE-X 8BB-X	8bb-X	4rc	.
.	32rEE	32raa	.	.
.	16AAn 16Gn 16c#X	32f#XLLL	.	.
.	.	32en	.	.
.	32rEE	32d#XJJJ	.	.
8rc	8rEE	8bn	8rc	.
32rc	8E-X	[8gn	[8d-X	.
32cnLLL	.	.	.	.
32B-X	.	.	.	.
32AnJJJ	.	.	.	.
=9	=9	=9	=9	=9
[8fnL	4rEE	8gL]	8d-L]	.
32fLL]	.	[8anJ	[8gnJ	.
32e-X	.	.	.	.
32d-X	.	.	.	.
32cnJJJ	.	.	.	.
8f	8rEE	16aKL]	8gL]	.
.	.	8b-X	.	.
8rc	8En 8B-X	.	32f#XLL	.
.	.	.	32a	.
.	.	16ddnJk	32g	.
.	.	.	32f#JJJ	.
*v	*v	*	*	*
=10	=10	=10	=10
8Cn 8B-X 8en	8ddnL	[8ddL	.
8r	[8ff#J	32ddLL]	.
.	.	32ccn	.
.	.	32b-X	.
.	.	32anJJJ	.
8r	16ff#LL]	8dn	.
.	16ggnJ	.	.
*clefG2	*	*	*
32r	8bb-XJ	32rc	.
16cn 16b-X 16ee	.	32aanLLL	.
.	.	32gg	.
32r	.	32ff#JJJ	.
*	*v	*v	*
=11	=11	=11
8r	[8dddnL	.
32r	32dddLL]	.
16G-X 16e 16b-X	32cccn	.
.	32bb-X	.
32r	32aanJJJ	.
8r	[8ddnL	.
*clefF4	*	*
32r	32ddLL]	.
16Cn 16B-X 16e	32ccn	.
.	32b-X	.
32r	32anJJJ	.
=12	=12	=12
*^	*^	*
4rc	4rEE	4raa	[8ddnL	.
.	.	.	32ddLL]	.
.	.	.	32ccn	.
.	.	.	32b-X	.
.	.	.	32anJJJ	.
8rc	8rEE	8raa	8dn	.
32rc	8Fn	[8a	[8e-X	.
32dnLLL	.	.	.	.
32cn	.	.	.	.
32BnJJJ	.	.	.	.
=13	=13	=13	=13	=13
[8gnL	4rEE	8aL]	8e-L]	.
32gLL]	.	[8bnJ	[8anJ	.
32fn	.	.	.	.
32e-X	.	.	.	.
32dnJJJ	.	.	.	.
8g	8rEE	16bKL]	8aL]	.
.	.	8ccn	.	.
8rc	8F#X 8cn	.	32g#XLL	.
.	.	.	32b	.
.	.	16eenJk	32a	.
.	.	.	32g#JJJ	.
*v	*v	*	*	*
=14	=14	=14	=14
8Dn 8cn 8f#	8eeL	[8eeL	.
8r	[8gg#J	32eeLL]	.
.	.	32ddn	.
.	.	32ccn	.
.	.	32bJJJ	.
8r	16gg#LL]	8e	.
.	16aanJ	.	.
*clefG2	*	*	*
32r	8cccnJ	32rc	.
16dn 16ccn 16ff#	.	32bbLLL	.
.	.	32aa	.
32r	.	32gg#JJJ	.
*	*v	*v	*
=15	=15	=15
8r	[8eeeL	.
32r	32eeeLL]	.
16A-X 16f# 16ccn	32dddn	.
.	32cccn	.
32r	32bbJJJ	.
8r	[8eeL	.
*clefF4	*	*
32r	32eeLL]	.
16Dn 16cn 16f#	32ddn	.
.	32ccn	.
32r	32bJJJ	.
=16	=16	=16
*^	*	*
4rc	4rEE	[8eeL	.
.	.	32eeLL]	.
.	.	32ddn	.
.	.	32ccn	.
.	.	32bJJJ	.
8rc	8rEE	8e	.
32rc	8GGn 8Fn 8B	[8ffn [8bb [8fffn	.
32eLLL	.	.	.
32dn	.	.	.
32c#XJJJ	.	.	.
=17	=17	=17	=17
*	*	*^	*
[8anL	4rEE	8ffL] 8bb] 8fff]	8rc	.
32aLL]	.	[8cc#XJ [8ccc#X	[8ffn [8bb	.
32gn	.	.	.	.
32fn	.	.	.	.
32eJJJ	.	.	.	.
[8aL	8rEE	16cc#KL] 16ccc#]	8.ff] 8.bb]	.
.	.	8ddn 8dddn	.	.
32aLL]	8D-X 8c-X 8f	.	.	.
32b-X	.	.	.	.
32a-X	.	16ee-XJk 16ccc-X 16eee-X	16rc	.
32gJJJ	.	.	.	.
*	*	*v	*v	*
*clefG2	*	*	*
=18	=18	=18	=18
8ee-X	8rc	8ee-XL 8ccc-X 8eee-X	.
32raa	8Gn 8fn	8eenJ 8bbn 8eeen	.
32bnLLL	.	.	.
32an	.	.	.
32g#XJJJ	.	.	.
8een	8rc	8r	.
*clefF4	*	*	*
32rc	8Cn 8B-X 8e	[8bb-X [8eee [8bbb-X	.
32aLLL	.	.	.
32gn	.	.	.
32f#XJJJ	.	.	.
*clefG2	*	*	*
=19	=19	=19	=19
*	*	*^	*
[8ddnL	4rc	8bb-L] 8eee] 8bbb-]	8rc	.
32ddLL]	.	[8ff#J [8fff#	[8bb-X [8eee	.
32ccn	.	.	.	.
32b-X	.	.	.	.
32anJJJ	.	.	.	.
8dd	8rc	16ff#KL] 16fff#]	4bb-] 4eee]	.
.	.	8ggn 8gggn	.	.
32raa	8F# 8e 8a#X	.	.	.
32dd#XLLL	.	.	.	.
32cc#X	.	16gg#XJk 16ggg#X	.	.
32b#XJJJ	.	.	.	.
*v	*v	*	*	*
=20	=20	=20	=20
8r	8gg# 8ggg#	[8gg#L	.
16cn 16a#X	8raa	32gg#LL]	.
.	.	32ff#	.
16r	.	32ee	.
.	.	32dd#JJJ	.
4r	4raa	16g#	.
.	.	16rc	.
.	.	8rc	.
*	*v	*v	*
=21	=21	=21
8r	8r	.
32r	32r	.
16cn 16a#	32ff#LLL	.
.	32ee	.
32r	32dd#JJJ	.
8r	16g#	.
.	16r	.
32r	32r	.
16f# 16ee	32aa#LLL 32ddd#	.
.	32ccc#X	.
32r	32bb#XJJJ	.
=22	=22	=22
8r	[8ggg#L	.
32r	32ggg#LL]	.
16cn 16a# 16ee	32fff#	.
.	32eee	.
32r	32ddd#JJJ	.
8r	[8gg#L	.
*clefF4	*	*
32r	32gg#LL]	.
16F# 16e	32a# 32ff#	.
.	32ee	.
32r	32dd#JJJ	.
=23	=23	=23
*	*^	*
8r	[8gg#L	4rc	.
32r	32gg#LL]	.	.
16Cn 16A# 16e	32ff#	.	.
.	32ee	.	.
32r	32dd#JJJ	.	.
8r	8g#	8rc	.
32r	32raa	32rc	.
16.E	32d#LLL	16.A#	.
.	32c#X	.	.
.	32B#XJJJ	.	.
=24	=24	=24	=24
16FF#	[8g#L	8rc	.
16r	.	.	.
32r	32g#LL]	32rc	.
16.FF#	32f#	16.A#	.
.	32e	.	.
.	32d#JJJ	.	.
16FFF#	[8g#L	8rc	.
16r	.	.	.
32r	32g#LL]	32rc	.
16.E	32f#	16.Bn	.
.	32e	.	.
.	32d#JJJ	.	.
=25	=25	=25	=25
16FF#	[8bL	8rc	.
16r	.	.	.
32r	32bLL]	32rc	.
16.E 16.B	32a#	16.e	.
.	32g#	.	.
.	32f##XJJJ	.	.
16FF#X	[8dd#L	8rc	.
16r	.	.	.
32r	32dd#LL]	32rc	.
16.E 16.A#	32a#	16.e	.
.	32g#	.	.
.	32f##JJJ	.	.
=26	=26	=26	=26
16FF#	[8dd#L	8rc	.
16r	.	.	.
32r	32dd#LL]	32rc	.
16.E 16.B-X	32an	16.e	.
.	32gn	.	.
.	32f#JJJ	.	.
16CCn 16Cn	[8eeL	8rc	.
16r	.	.	.
32r	32eeLL]	32rc	.
16.E 16.A#X 16.e	32dd#	16.a#X	.
.	32cc#X	.	.
.	32b#XJJJ	.	.
=27	=27	=27	=27
16FFF# 16FF#	[8gg#XL	4rc	.
16r	.	.	.
8r	32gg#LL]	.	.
.	32ff#	.	.
.	32ee	.	.
.	32dd#JJJ	.	.
8r	[8g#L	8rc	.
32r	32g#LL]	32rc	.
16.An	32g#	16.d#	.
.	32f#	.	.
.	32e#XJJJ	.	.
=28	=28	=28	=28
16BB	[8cc#L	8rc	.
16r	.	.	.
32r	32cc#LL]	32rc	.
16.BB	32b	16.d#	.
.	32an	.	.
.	32g#JJJ	.	.
16BBB	[8cc#L	8rc	.
16r	.	.	.
32r	32cc#LL]	32rc	.
16.BB 16.An	32b	16.c#	.
.	32a	.	.
.	32g#JJJ	.	.
=29	=29	=29	=29
16EE	[8eeL	8rb	.
16r	.	.	.
32r	32eeLL]	32rc	.
16.BB 16.An 16.e	32dd#	16.an	.
.	32cc#	.	.
.	32b#XJJJ	.	.
8r	8gg#	8rc	.
32r	32raa	32rc	.
16.B-X	32aLLL	16.e	.
.	32gn	.	.
.	32f#JJJ	.	.
=30	=30	=30	=30
8Cn	8ddn	4rc	.
8r	8raa	.	.
8r	8raa	8rc	.
32r	32raa	32rc	.
16.E 16.A#X	32a#XLLL	16.e	.
.	32g#X	.	.
.	32f##XJJJ	.	.
=31	=31	=31	=31
8FF#	8dd#X	4rc	.
8r	8raa	.	.
8r	8raa	8rc	.
32r	32raa	32rc	.
16.D# 16.F#	32cc#LLL	16.d# 16.f#X	.
.	32b	.	.
.	32a#JJJ	.	.
*	*v	*v	*
=32	=32	=32
[8qBBB/ [8qFF#	.	.
2BBB] 2FF#] 2D# 2F# 2d#	2f# 2b 2ff#	.
==	==	==
*-	*-	*-
!!!system-decoration: {(*)}
!!!ENC: Bryan Jacob Bell
!!!END: November 2021 to April 2022
!!!PED: Günter Philipp
!!!PTL: Ausgewählte Klavierwerke (Edition Peters)
